!!!OTL: ES REIT EIN HERR UND AUCH SEIN KNECHT
!!!ARE: Europa, Mitteleuropa, Deutschland
!!!SCT: Z0031
!!!YEM: Copyright 1995, estate of Helmut Schaffrath.
**kern
*ICvox
*Ivox
*M4/4
*k[f#]
*e:
{4b
=1
4ee
4ddn
4ccn
4b
=2
4a
4gn
4f#}
{4ee
=3
4ff#
4ggn
4ff#
4ee
=4
4ddn
4ccn
4b
4ccn
=5
2ddn
4r}
{4b
=6
4ddn
4ccn
4b
4a
=7
4gn
4fn
4e}
{4a
=8
8ccn
8ccn
8b
8b
8a
8a
8gn
8gn
=9
2f#
4e
4b
=10
2f#
4e}
==
!!!AGN: Sagen - Lied, Romanze
!!!ONB: ESAC (Essen Associative Code) Database: ZUCCAL
!!!AMT: simple quadruple
!!!AIN: vox
!!!EED: Helmut Schaffrath
!!!EEV: 1.0
*-
